icon/ir/hdr.svg

<svg stroke-width="1.5" viewBox="0 0 24 24" fill="none" xmlns="http://www.w3.org/2000/svg" height="1em" width="1em">
  <path d="M1.5 8.5V12M1.5 15.5V12M1.5 12H6M6 12L6 8.5M6 12L6 15.5" stroke="currentColor" stroke-linecap="round" stroke-linejoin="round"/>
  <path d="M17.5 15.5V12.7M20.3571 12.7C21.0714 12.7 22.5 12.7 22.5 10.6C22.5 8.5 21.0714 8.5 20.3571 8.5L17.5 8.5V12.7M20.3571 12.7C19.2143 12.7 17.9762 12.7 17.5 12.7M20.3571 12.7L22.5 15.5" stroke="currentColor" stroke-linecap="round" stroke-linejoin="round"/>
  <path d="M9.5 12V8.5C12 8.5 14.5 8.5 14.5 12C14.5 15.5 12 15.5 9.5 15.5V12Z" stroke="currentColor" stroke-linecap="round" stroke-linejoin="round"/>
</svg>

<svg width="24" height="24" stroke-width="1.5" fill="none" xmlns="http://www.w3.org/2000/svg"><path d="M1.5 8.5V12m0 3.5V12m0 0H6m0 0V8.5M6 12v3.5M17.5 15.5v-2.8m2.857 0c.714 0 2.143 0 2.143-2.1s-1.429-2.1-2.143-2.1H17.5v4.2m2.857 0H17.5m2.857 0 2.143 2.8M9.5 12V8.5c2.5 0 5 0 5 3.5s-2.5 3.5-5 3.5V12Z" stroke="currentColor" stroke-linecap="round" stroke-linejoin="round"/></svg>
